X: 1
T: Byssan Lull
O: Sweden
M: C
L: a/8
K: Dm
| "Dm"D2 A2 A2 AA | "Gm"A2 GF E3 F | "A7"G2 GG GG AG | "Dm"F4 "A7"E2 z2 |
| "Dm"D2 A2 A2 GA | "Gm"BA GF E3 F | "A7"G2 GG GG AG | "Dm"F4 "A7"E2 zE |
| "Dm"FF FD "A7"E3 E | "Dm"FF FD "A7"E3 G | "Gm"GG AB "D7"A2 GF | "A7"E4 "Dm"D3 z |]
